X: 82
T: No_172_Steal_Partner_Dance_Song_(a).krn
N: Derived from No_172_Steal_Partner_Dance_Song_(a).krn
%%abc-version 2.0
%%abcx-abcm2ps-target-version 5.9.1 (29 Sep 2008)
%%abc-creator hum2abc beta
%%abcx-conversion-date 2019/03/15 08:38:45
%%humdrum-veritas 187245596
%%humdrum-veritas-data 1188095854
%%linebreak <none>
%%barnumbers 0
L: 1/16
M: 3/8
K: G clef=bass
[K:clef=bass][M:3/8]z4G,2 | 
D2D3/B,/B,2 | 
B,6 ||  
[M:2/4]B,2B,2 D2B,2 | 
B,3/B,/(B,A,)G,4 | 
G,2G,2 A,G,B,2 | 
B,3/B,/B,2 G,3D, | 
G,/G,/G, z2 D,3D, | 
G,4G,4 | 
G,G,G,2 A,G,B,2 | 
B,3/B,/(B,A,) G,2 z2 | 
G,G,G,2 G,2D2 | 
D3/B,/B,2B,4 | 
B,B,B,2 D2B,2 ||  
[M:3/4]B,3/B,/A,2G,4z4 ||  
[M:2/4]G,G,G,2 A,G,B,2 | 
B,3/B,/A,2 (G,3D,) | 
G,G,G,2 z2 D,3/D,/ | 
G,4G,2 z2 | 
G,G,G,2 A,G,B,2 ||  
[M:3/4]B,3/B,/B,A,G,4G,2G,3/G,/ |]  



